icons/night/tcl.svg

<svg
  viewBox="0 0 16 16"
  xmlns="http://www.w3.org/2000/svg"
  xml:space="preserve"
  style="fill-rule:evenodd;clip-rule:evenodd;stroke-linejoin:round;stroke-miterlimit:2"
><path
    d="m26.48 16.851-7.474 7.559a1.968 1.968 0 0 1-1.4.585H9.415l-3.708 3.713a1.002 1.002 0 0 1-.707.293A1.006 1.006 0 0 1 3.999 28c0-.265.106-.52.293-.707l2.824-2.823L15.588 16h10.537a.502.502 0 0 1 .355.851m.608-13.03c-6.416-2.154-7.84-2.377-10.738.518l-1.2 1.185a.503.503 0 0 0-.15.351v7.875l6.875-6.875a1 1 0 0 1 1.414 1.414L17.589 14h11.047a.501.501 0 0 0 .445-.27c1.76-3.346-2.179-4.515-1.993-9.909M7.854 20.904 13 15.758V8.845a.502.502 0 0 0-.851-.355L7.586 13A1.989 1.989 0 0 0 7 14.414v6.136a.502.502 0 0 0 .854.354"
    style="fill:#f7768e;fill-rule:nonzero"
    transform="matrix(.39213 0 0 .39213 1.335 1.92)"
  /></svg>

<?xml version="1.0" encoding="UTF-8" standalone="no"?>
<!DOCTYPE svg PUBLIC "-//W3C//DTD SVG 1.1//EN" "http://www.w3.org/Graphics/SVG/1.1/DTD/svg11.dtd">
<svg width="100%" height="100%" viewBox="0 0 16 16" version="1.1" xmlns="http://www.w3.org/2000/svg" xmlns:xlink="http://www.w3.org/1999/xlink" xml:space="preserve" xmlns:serif="http://www.serif.com/" style="fill-rule:evenodd;clip-rule:evenodd;stroke-linejoin:round;stroke-miterlimit:2;">
    <g transform="matrix(0.392126,0,0,0.392126,1.33458,1.92018)">
        <path d="M26.48,16.851L19.006,24.41C18.637,24.784 18.132,24.995 17.606,24.995L9.415,24.995L5.707,28.708C5.52,28.895 5.265,29.001 5,29.001C4.451,29.001 3.999,28.549 3.999,28C3.999,27.735 4.105,27.48 4.292,27.293L7.116,24.47L15.588,16L26.125,16C26.399,16 26.624,16.226 26.624,16.5C26.624,16.631 26.572,16.758 26.48,16.851M27.088,3.821C20.672,1.667 19.248,1.444 16.35,4.339L15.15,5.524C15.056,5.616 15.002,5.743 15,5.875L15,13.75L21.875,6.875C22.061,6.698 22.308,6.6 22.564,6.6C23.112,6.6 23.564,7.051 23.564,7.6C23.564,7.856 23.465,8.103 23.289,8.289L17.589,14L28.636,14C28.823,14 28.995,13.896 29.081,13.73C30.841,10.384 26.902,9.215 27.088,3.821M7.854,20.904L13,15.758L13,8.845C13,8.571 12.774,8.346 12.5,8.346C12.369,8.346 12.242,8.398 12.149,8.49L7.586,13C7.21,13.374 6.999,13.883 7,14.414C7,14.414 7,20.55 7,20.55C7,20.825 7.226,21.05 7.5,21.05C7.633,21.05 7.76,20.998 7.854,20.904" style="fill:rgb(239,83,80);fill-rule:nonzero;"/>
    </g>
</svg>
